dist/assets/img/corporulia/latitudeus/messages/message_task_3.svg

<svg width="420" height="237" viewBox="0 0 420 237" fill="none" xmlns="http://www.w3.org/2000/svg">
<g filter="url(#filter0_di_1464_65498)">
<path fill-rule="evenodd" clip-rule="evenodd" d="M109.544 39.9561C63.6162 56.7768 40.563 87.567 40.0053 126.739C39.2035 183.053 130.205 184.033 201.734 184.804C203.115 184.819 204.49 184.833 205.856 184.849C248.622 185.322 302.527 183.473 338.711 168.122C341.57 166.909 344.848 167.343 347.473 169.002C352.446 172.143 359.114 174.945 365.108 173.896C365.699 173.793 365.853 173.058 365.383 172.685C362.554 170.437 360.092 168.481 357.951 166.143C355.168 163.102 356.467 158.532 359.674 155.942C369.571 147.947 376.238 137.811 378.256 124.983C385.25 80.5224 349.126 60.525 300.778 45.845C254.928 31.9231 172.601 16.8624 109.544 39.9561Z" fill="white"/>
</g>
<defs>
<filter id="filter0_di_1464_65498" x="0" y="0" width="419.123" height="236.912" filterUnits="userSpaceOnUse" color-interpolation-filters="sRGB">
<feFlood flood-opacity="0" result="BackgroundImageFix"/>
<feColorMatrix in="SourceAlpha" type="matrix" values="0 0 0 0 0 0 0 0 0 0 0 0 0 0 0 0 0 0 127 0" result="hardAlpha"/>
<feOffset dy="12"/>
<feGaussianBlur stdDeviation="20"/>
<feComposite in2="hardAlpha" operator="out"/>
<feColorMatrix type="matrix" values="0 0 0 0 0.909804 0 0 0 0 0.313726 0 0 0 0 0.470588 0 0 0 1 0"/>
<feBlend mode="normal" in2="BackgroundImageFix" result="effect1_dropShadow_1464_65498"/>
<feBlend mode="normal" in="SourceGraphic" in2="effect1_dropShadow_1464_65498" result="shape"/>
<feColorMatrix in="SourceAlpha" type="matrix" values="0 0 0 0 0 0 0 0 0 0 0 0 0 0 0 0 0 0 127 0" result="hardAlpha"/>
<feOffset dy="-4"/>
<feGaussianBlur stdDeviation="4"/>
<feComposite in2="hardAlpha" operator="arithmetic" k2="-1" k3="1"/>
<feColorMatrix type="matrix" values="0 0 0 0 0.909804 0 0 0 0 0.313726 0 0 0 0 0.470588 0 0 0 0.16 0"/>
<feBlend mode="normal" in2="shape" result="effect2_innerShadow_1464_65498"/>
</filter>
</defs>
</svg>

<svg width="420" height="237" viewBox="0 0 420 237" fill="none" xmlns="http://www.w3.org/2000/svg"><g filter="url(#filter0_di_1464_65498)"><path fill-rule="evenodd" clip-rule="evenodd" d="M109.544 39.956c-45.928 16.82-68.981 47.611-69.539 86.783-.802 56.314 90.2 57.294 161.729 58.065 1.381.015 2.756.029 4.122.045 42.766.473 96.671-1.376 132.855-16.727 2.859-1.213 6.137-.779 8.762.88 4.973 3.141 11.641 5.943 17.635 4.894.591-.103.745-.838.275-1.211-2.829-2.248-5.291-4.204-7.432-6.542-2.783-3.041-1.484-7.611 1.723-10.201 9.897-7.995 16.564-18.131 18.582-30.959 6.994-44.46-29.13-64.458-77.478-79.138-45.85-13.922-128.177-28.983-191.234-5.889z" fill="#fff"/></g><defs><filter id="filter0_di_1464_65498" x="0" y="0" width="419.123" height="236.912" filterUnits="userSpaceOnUse" color-interpolation-filters="sRGB"><feFlood flood-opacity="0" result="BackgroundImageFix"/><feColorMatrix in="SourceAlpha" values="0 0 0 0 0 0 0 0 0 0 0 0 0 0 0 0 0 0 127 0" result="hardAlpha"/><feOffset dy="12"/><feGaussianBlur stdDeviation="20"/><feComposite in2="hardAlpha" operator="out"/><feColorMatrix values="0 0 0 0 0.909804 0 0 0 0 0.313726 0 0 0 0 0.470588 0 0 0 1 0"/><feBlend in2="BackgroundImageFix" result="effect1_dropShadow_1464_65498"/><feBlend in="SourceGraphic" in2="effect1_dropShadow_1464_65498" result="shape"/><feColorMatrix in="SourceAlpha" values="0 0 0 0 0 0 0 0 0 0 0 0 0 0 0 0 0 0 127 0" result="hardAlpha"/><feOffset dy="-4"/><feGaussianBlur stdDeviation="4"/><feComposite in2="hardAlpha" operator="arithmetic" k2="-1" k3="1"/><feColorMatrix values="0 0 0 0 0.909804 0 0 0 0 0.313726 0 0 0 0 0.470588 0 0 0 0.16 0"/><feBlend in2="shape" result="effect2_innerShadow_1464_65498"/></filter></defs></svg>
